Papirus-nordic/22x22/places/folder-red-projects.svg

<svg xmlns="http://www.w3.org/2000/svg" width="22" height="22" version="1">
 <rect width="20" height="12" x="1" y="8.5" rx="1" ry="1" opacity=".2"/>
 <path d="M1 16c0 .554.446 1 1 1h18c.554 0 1-.446 1-1V5c0-.554-.446-1-1-1H10V3c0-.554-.446-1-1-1H2c-.554 0-1 .446-1 1" fill="#ae4f58"/>
 <rect width="20" height="12" x="1" y="7.5" rx="1" ry="1" opacity=".2"/>
 <rect width="16" height="8" x="3" y="6" rx="1" ry="1" fill="#e4e4e4"/>
 <rect width="20" height="12" x="1" y="8" rx="1" ry="1" fill="#bf616a"/>
 <path d="M2 2c-.554 0-1 .446-1 1v.5c0-.554.446-1 1-1h7c.554 0 1 .446 1 1V3c0-.554-.446-1-1-1zm8 2v.5h10c.554 0 1 .446 1 1V5c0-.554-.446-1-1-1z" opacity=".1" fill="#fff"/>
 <path d="M13 10a1.495 1.495 0 0 0 0 2.82V14c.456.304.781.695 1 1.088V12.82A1.495 1.495 0 0 0 14 10v1a.499.499 0 1 1-1 0zm-2 4c-3 0-3 3-3 3H7v1h8v-1h-1s0-3-3-3zm0 1c2 0 2 2 2 2H9s0-2 2-2z" fill="#974a4d"/>
</svg>

<svg xmlns="http://www.w3.org/2000/svg" width="22" height="22" version="1">
 <rect style="opacity:0.2" width="20" height="12" x="1" y="8.5" rx="1" ry="1"/>
 <path style="fill:#ae4f58" d="M 1,16 C 1,16.554 1.446,17 2,17 H 20 C 20.554,17 21,16.554 21,16 V 5 C 21,4.446 20.554,4 20,4 H 11 C 9.5,4 9,2 7.5,2 H 2 C 1.446,2 1,2.446 1,3"/>
 <rect style="opacity:0.2" width="20" height="12" x="1" y="7.5" rx="1" ry="1"/>
 <rect style="fill:#e4e4e4" width="16" height="8" x="3" y="6" rx="1" ry="1"/>
 <rect style="fill:#bf616a" width="20" height="12" x="1" y="8" rx="1" ry="1"/>
 <path style="opacity:0.1;fill:#ffffff" d="M 2,2 C 1.446,2 1,2.446 1,3 V 3.5 C 1,2.946 1.446,2.5 2,2.5 H 7.5 C 9,2.5 9.5,4.5 11,4.5 H 20 C 20.554,4.5 21,4.946 21,5.5 V 5 C 21,4.446 20.554,4 20,4 H 11 C 9.5,4 9,2 7.5,2 Z"/>
 <path style="fill:#974a4d" d="M 13,10 C 12.4,10.212 12,10.777 12,11.412 12,12.064 12.419,12.614 13,12.82 V 14 C 13.456,14.304 13.781,14.695 14,15.088 V 12.82 C 14.581,12.614 15,12.064 15,11.412 15,10.777 14.6,10.212 14,10 V 11 C 14,11.277 13.777,11.5 13.5,11.5 13.223,11.5 13,11.277 13,11 Z M 11,14 C 8,14 8,17 8,17 H 7 V 18 H 15 V 17 H 14 C 14,17 14,14 11,14 Z M 11,15 C 13,15 13,17 13,17 H 9 C 9,17 9,15 11,15 Z"/>
</svg>
